X:1
T:Title
%%score [ ( 1 2 ) ( 3 4 ) ] { ( 5 6 ) | ( 7 8 ) }
L:1/8
Q:1/4=120
M:4/4
K:G
V:1 treble nm="Midi_74"
V:2 treble 
V:3 bass nm="Midi_74"
V:4 bass 
V:5 treble nm="Org."
V:6 treble 
V:7 bass 
V:8 bass 
V:1
 e8 | d4 ^c4 | B8 || B8 | =c4 B4 | A4 G4 | F8 || f8 | f4 e4 | ^d8 || =c8 | B4 e4 | %12
"^John Camidge\n(1790-1859)" G4 F4 | E8 |] %14
V:2
 G8 | F4 E4 | D8 || D8 | D4 D4 | E4 E4 | D8 || A8 | A4 G4 | F8 || F8 | G4 E4 | E4 ^D4 | E8 |] %14
V:3
 B,8 | B,4 ^A,4 | B,8 || B,8 | =A,4 B,4 | C4 _B,4 | A,8 || A,8 | A,4 ^C4 | ^D8 || ^D8 | E4 C4 | %12
 B,4 A,4 | G,8 |] %14
V:4
 E,8 | F,4 F,4 | B,,8 || G,8 | F,4 G,4 | C,4 ^C,4 | D,8 || D,8 | ^C,4 ^A,,4 | B,,8 || =A,,8 | %11
 G,,4 A,,4 | B,,4 B,,4 | E,8 |] %14
V:5
 [Be]8 | d4 ^c4 | B8 || B8 | =c4 B4 | A4 G4 | F8 || f8 | f4 [^ce]4 | [B^d]8 || =c8 | B4 e4 | %12
 G4 F4 | E8 |] %14
V:6
 G8 | [FB]4 [E^A]4 | D8 || [DG]8 | [DA]4 [DG]4 | [CE]4 [_B,E]4 | [A,D]8 || [FA]8 | [FA]4 G4 | F8 || %10
 [^DF]8 | E4 [EA]4 | [B,E]4 [A,B,^D]4 | [G,B,E]8 |] %14
V:7
 x8 | x8 | x8 || x8 | x8 | x8 | x8 || D8 | x8 | x8 || A,8 | x8 | x8 | x8 |] %14
V:8
 [E,,E,]8 | [F,,F,]4 [F,,F,]4 | [B,,B,]8 || [G,,G,]8 | [F,,F,]4 [G,,G,]4 | [C,,C,]4 [^C,,^C,]4 | %6
 [D,,D,]8 || D,8 | [^C,^C]4 [^A,,^A,]4 | [B,,B,]8 || A,,8 | [G,,G,]4 [A,,A,]4 | B,,4 B,,4 | %13
 [E,,E,]8 |] %14

